!!!!SEGMENT: Ver3028-Donna_se_fera_stella.krn
!!!id: Ver3028
!!!AGN: Madrigal
!!!SCT: Slim (1972)
!!!voices: 5
!!!COM: Philippe Verdelot
!!!OTL: Donna, se fera stella
**kern	**kern	**kern	**kern	**kern
*part5	*part4	*part3	*part2	*part1
*staff5	*staff4	*staff3	*staff2	*staff1
*I"Bassus	*I"Tenor II	*I"Tenor I	*I"Altus	*I"Superius
*I'B	*I'T. II	*I'T. I	*I'A	*I'S
*clefF4	*clefGv2	*clefGv2	*clefGv2	*clefG2
*k[]	*k[]	*k[]	*k[]	*k[]
*C:	*C:	*C:	*C:	*C:
*M2/1	*M2/1	*M2/1	*M2/1	*M2/1
*met(C|)	*met(C|)	*met(C|)	*met(C|)	*met(C|)
=1	=1	=1	=1	=1
1r	0r	0A	0r	0r
[1A	.	.	.	.
=2	=2	=2	=2	=2
1A]	0r	1D	0r	1r
1AA	.	1A	.	[1e
=3	=3	=3	=3	=3
1r	1r	2G	0r	1e]
.	.	2E	.	.
1D	[1A	1F	.	1A
=4	=4	=4	=4	=4
2C	1A]	1E	0r	1e
2AA	.	.	.	.
1BB	1D	1r	.	2d
.	.	.	.	2B
=5	=5	=5	=5	=5
1AA	1A	1r	0e	1c
1r	2G	2r	.	1B
.	2E	2e	.	.
=6	=6	=6	=6	=6
0r	1F	2c	1A	2r
.	.	2A	.	2a
.	1E	2B	1e	2g
.	.	2c	.	2e
=7	=7	=7	=7	=7
1r	0r	2d	2d	2f
.	.	2d	2B	2g
1A	.	2.e	1c	2a
.	.	.	.	2e
.	.	4c	.	.
=8	=8	=8	=8	=8
2G	2r	2d	1B	2.g
2E	2e	2G	.	.
.	.	.	.	4f
2F	2d	1r	2r	2a
2G	2B	.	2d	2g
=9	=9	=9	=9	=9
2A	2c	1r	2c	2r
2F	2d	.	2A	2a
2G	1e	2r	2B	2g
2A	.	2e	2c	2e
=10	=10	=10	=10	=10
2D	1r	2d	1d	2f
2G	.	2B	.	2g
1F	1A	2c	1r	1a
.	.	2d	.	.
=11	=11	=11	=11	=11
2E	2B	1e	2r	1g
2E	2G	.	2.e	.
4AA	1A	2c	.	2.cc
4BB	.	.	4d	.
4C	.	[2e	4e	.
4D	.	.	4f	4b
=12	=12	=12	=12	=12
4E	2G	4e]	2g	2cc
4F	.	4d	.	.
2G	2G	2B	2d	2.b
2F	2A	2c	1f	.
.	.	.	.	4a
2D	2F	2d	.	[2a
=13	=13	=13	=13	=13
1E	1G	1B	1e	2a]
.	.	.	.	2g#i
1AA	1E	[1A	2r	1a
.	.	.	2e	.
=14	=14	=14	=14	=14
0r	1F	1A]	2d	2r
.	.	.	2c	2a
.	2G	2r	2B	2g
.	2D	[2d	[2A	2f
=15	=15	=15	=15	=15
2r	1A	2d]	4A]	2.e
.	.	.	4B	.
2A	.	2c	2c	.
.	.	.	.	4f
2G	2r	2B	1d	2g
2F	2A	2A	.	2a
=16	=16	=16	=16	=16
1E	2B	1e	1G	2g
.	2c	.	.	2e
1D	2d	2A	1F	1f
.	2D	2B	.	.
=17	=17	=17	=17	=17
2C	2E	2c	2G	1e
2AA	2C	2e	2.A	.
1BB	2.D	1d	.	1r
.	.	.	4G#i	.
.	.	.	4G#i	.
.	8CL	.	8F#iL	.
.	8DJ	.	8G#iJ	.
=18	=18	=18	=18	=18
1AA	2E	2.c	1A	2r
.	2C	.	.	2a
.	.	4d	.	.
1r	1G	1B	2r	1b
.	.	.	2d	.
=19	=19	=19	=19	=19
0r	0r	1A	1e	2.cc
.	.	.	.	4b
.	.	2r	2.f	1a
.	.	[2d	.	.
.	.	.	4e	.
=20	=20	=20	=20	=20
1r	0r	2d]	2d	2a
.	.	2e	2c	2cc
1D	.	2f	2.d	2b
.	.	2f	.	[2a
.	.	.	4c	.
=21	=21	=21	=21	=21
1E	1r	1e	1B	4a]
.	.	.	.	8g#iL
.	.	.	.	8f#iJ
.	.	.	.	2g#i
2.F	2r	2r	2A	1a
.	2A	2c	2f	.
4E	.	.	.	.
=22	=22	=22	=22	=22
2D	2B	2d	2f	1r
2C	2c	2e	2e	.
2.D	2B-X	2.f	1d	2r
.	[2A	.	.	2a
4C	.	4e	.	.
=23	=23	=23	=23	=23
1BB	2A]	1d	1D	1b
.	2G	.	.	.
1AA	2.A	2c	2E	2.cc
.	.	[2A	2e	.
.	4G	.	.	4b
=24	=24	=24	=24	=24
1r	1F	4A]	2e	2a
.	.	4G	.	.
.	.	4A	2d	1a
.	.	4B	.	.
1AA	[1E	2c	2.e	.
.	.	2A	.	2cc
.	.	.	4f	.
=25	=25	=25	=25	=25
2GG	1E]	2B	4g	2b
.	.	.	4f	.
2AA	.	2c	4e	2.a
.	.	.	4d	.
1E	1r	1B	1e	.
.	.	.	.	8g#iL
.	.	.	.	8f#iJ
.	.	.	.	2g#i
=26	=26	=26	=26	=26
4AA	2r	1A	0e	1a
4BB	.	.	.	.
4C	2c	.	.	.
4D	.	.	.	.
2E	2B	2r	.	[1g
2C	2e	2c	.	.
=27	=27	=27	=27	=27
0G	2d	2B	0r	0g]
.	1B	2e	.	.
.	.	2d	.	.
.	[2d	2B	.	.
=28	=28	=28	=28	=28
1D	2d]	1d	0r	2r
.	2A	.	.	2f
2r	1r	1A	.	2e
2F	.	.	.	2a
=29	=29	=29	=29	=29
2E	0r	0r	2r	2g
2A	.	.	2c	2e
2G	.	.	2B	[1g
2E	.	.	2e	.
=30	=30	=30	=30	=30
1G	1r	0r	2d	1g]
.	.	.	2B	.
1D	2r	.	1d	1f
.	2D	.	.	.
=31	=31	=31	=31	=31
2r	2.F	2r	2A	2r
2D	.	2d	2f	2a
.	4G	.	.	.
2.F	2A	2c	2f	2a
.	2D	2d	2f	2a
4G	.	.	.	.
=32	=32	=32	=32	=32
2A	2.F	2c	1.f	1.a
2D	.	2d	.	.
.	4G	.	.	.
2.F	1A	2c	.	.
.	.	2c	2f	2a
4G	.	.	.	.
=33	=33	=33	=33	=33
2A	1D	1d	1f	2a
2D	.	.	.	2a
4AA	2.E	2.c	1e	1cc
4BB	.	.	.	.
4C	.	.	.	.
4D	4F	8BL	.	.
.	.	8AJ	.	.
=34	=34	=34	=34	=34
2E	2G	2G	2e	2b
2F	2D	2A	2d	1a
1E	1G	1B	1e	.
.	.	.	.	2g
=35	=35	=35	=35	=35
0AA	1E	1A	1c	0a
.	2r	2r	2r	.
.	2A	2c	2e	.
=36	=36	=36	=36	=36
0r	2A	2c	2.f	0r
.	2F	2A	.	.
.	.	.	4e	.
.	2G	2B	2d	.
.	2D	[2d	2f	.
=37	=37	=37	=37	=37
2r	1A	2d]	1e	2r
2A	.	2c#i	.	2e
2A	1D	2d	[1d	2.f
2F	.	2A	.	.
.	.	.	.	4e
=38	=38	=38	=38	=38
2G	0r	2B	1d]	2d
2D	.	1d	.	2f
1A	.	.	2r	1e
.	.	2c#i	2e	.
=39	=39	=39	=39	=39
1D	1A	2d	0f	2d
.	.	2D	.	2a
2r	1D	4F	.	1a
.	.	4E	.	.
2D	.	4F	.	.
.	.	4G	.	.
=40	=40	=40	=40	=40
2D	1F	2A	1d	1a
2D	.	2F	.	.
[1C	[1E	[1G	2.e	[1cc
.	.	.	4d	.
=41	=41	=41	=41	=41
1C]	1E]	1G]	1c	1cc]
[1GG	1D	[1G	[1d	[1b
=42	=42	=42	=42	=42
1GG]	0D	1G]	1d]	1b]
[1GG	.	[1B	[1d	1r
=43	=43	=43	=43	=43
1GG]	2.G	1B]	1d]	0g
.	4F	.	.	.
2.C	2E	2.c	2.e	.
.	2E	.	.	.
4BB	.	4c	4e	.
=44	=44	=44	=44	=44
2AA	2.A	2c	2e	2.a
2AA	.	2c	2e	.
.	4G	.	.	4a
1D	4F	1d	1f	2a
.	4E	.	.	.
.	[2A	.	.	2a
=45	=45	=45	=45	=45
0AA	2A]	1c	1e	0cc
.	4G	.	.	.
.	4F	.	.	.
.	1E	2r	2r	.
.	.	2A	2e	.
=46	=46	=46	=46	=46
0r	2r	1.d	1.f	1a
.	2D	.	.	.
.	1A	.	.	2r
.	.	2c	[2e	2cc
=47	=47	=47	=47	=47
1r	2G	1d	4e]	2b
.	.	.	4d	.
.	2F	.	1d	2a
2r	1E	1e	.	2g
2AA	.	.	2c#i	2a
=48	=48	=48	=48	=48
1.D	1D	1.f	1.d	2.a
.	.	.	.	4g
.	1A	.	.	4a
.	.	.	.	4b
2C	.	2e	2e	2cc
=49	=49	=49	=49	=49
1D	2F	2.d	2f	2b
.	2F	.	2f	2.a
.	.	4c	.	.
1E	2G	1B	1e	.
.	.	.	.	8g#iL
.	.	.	.	8f#iJ
.	2G	.	.	2g#i
=50	=50	=50	=50	=50
1.F	2r	1A	2c	1a
.	1D	.	1d	.
.	.	1r	.	1r
2E	2E	.	2c	.
=51	=51	=51	=51	=51
2D	2F	0r	2B	1r
2C	1E	.	2.A	.
1BB	.	.	.	2r
.	.	.	8G#iL	.
.	.	.	8F#iJ	.
.	2D	.	2G#i	2b
=52	=52	=52	=52	=52
2AA	1E	2r	2A	2.cc
2AA	.	2e	2A	.
.	.	.	.	4b
2.D	1r	2.f	2A	2.a
.	.	.	2A	.
4D	.	4e	.	4g
=53	=53	=53	=53	=53
2D	1r	2.d	2B-X	1f
2D	.	.	2.A	.
.	.	4c	.	.
1E	2r	1B	.	1e
.	.	.	4G#i	.
.	2B	.	4G#i	.
.	.	.	8F#iL	.
.	.	.	8G#iJ	.
=54	=54	=54	=54	=54
2AA	2.c	2A	2A	2r
2AA	.	2e	2c	2a
.	4B	.	.	.
2.D	2.A	2.f	2.d	2a
.	.	.	.	2a
4D	4G	4e	4e	.
=55	=55	=55	=55	=55
2D	1F	2.d	2f	2b-X
2D	.	.	2f	2.a
.	.	4c	.	.
1E	1G	1B	1e	.
.	.	.	.	8g#iL
.	.	.	.	8f#iJ
.	.	.	.	2g#i
=56	=56	=56	=56	=56
1AA	1E	2A	2c	[0al
.	.	2e	2A	.
2r	1A	2.e	2.c	.
2A	.	.	.	.
.	.	4d	4d	.
=57	=57	=57	=57	=57
2.A	2r	2.c	2e	0a_
.	2A	.	2e	.
4G	.	4B	.	.
2.F	2.A	[1A	[1f	.
4E	4G	.	.	.
=58	=58	=58	=58	=58
0D	2F	1A]	1f]	0a_
.	2D	.	.	.
.	1F	[1Al	1d	.
=59	=59	=59	=59	=59
00AAl	00El	00A]	00cl	00a]
==	==	==	==	==
*-	*-	*-	*-	*-
!!!system-decoration: [*]
!!!RDF**kern: i = editorial accidental
!!!RDF**kern: l = terminal long
!!!ENC: Benjamin Ory
!!!END: 2021/4/15
!!!EED: Benjamin Ory
!!!EEV: 2021/04/29
!!!YEC: Copyright 2021 Benjamin Ory, All Rights Reserved
!!!ONB: Translated from MusicXML on 2021/04/29
